Example/Assets/Images.xcassets/Security.imageset/protection.svg

<?xml version="1.0" encoding="iso-8859-1"?>
<!-- Generator: Adobe Illustrator 17.1.0, SVG Export Plug-In . SVG Version: 6.00 Build 0)  -->
<!DOCTYPE svg PUBLIC "-//W3C//DTD SVG 1.1//EN" "http://www.w3.org/Graphics/SVG/1.1/DTD/svg11.dtd">
<svg version="1.1" id="Capa_1" xmlns="http://www.w3.org/2000/svg" xmlns:xlink="http://www.w3.org/1999/xlink" x="0px" y="0px"
	 viewBox="0 0 229.5 229.5" style="enable-background:new 0 0 229.5 229.5;" xml:space="preserve">
<path d="M214.419,32.12c-0.412-2.959-2.541-5.393-5.419-6.193l-92.24-25.652c-1.314-0.366-2.704-0.366-4.019,0l-92.24,25.652
	c-2.879,0.8-5.008,3.233-5.419,6.193c-0.535,3.847-12.74,94.744,18.565,139.961c31.268,45.165,77.395,56.739,79.343,57.209
	c0.579,0.14,1.169,0.209,1.761,0.209s1.182-0.07,1.761-0.209c1.949-0.471,48.076-12.045,79.343-57.209
	C227.159,126.864,214.954,35.967,214.419,32.12z M182.383,162.719c-27.12,39.174-67.744,48.986-67.744,48.986V114.75H30.918
	c-4.861-36.388,0.334-73.765,0.334-73.765l83.386-23.19v96.955h83.721C195.996,132.443,191.256,149.903,182.383,162.719z"/>
<g>
</g>
<g>
</g>
<g>
</g>
<g>
</g>
<g>
</g>
<g>
</g>
<g>
</g>
<g>
</g>
<g>
</g>
<g>
</g>
<g>
</g>
<g>
</g>
<g>
</g>
<g>
</g>
<g>
</g>
</svg>

<?xml version="1.0" encoding="UTF-8" standalone="no"?>
<!DOCTYPE svg PUBLIC "-//W3C//DTD SVG 1.1//EN" "http://www.w3.org/Graphics/SVG/1.1/DTD/svg11.dtd">
<svg width="100%" height="100%" viewBox="0 0 16 16" version="1.1" xmlns="http://www.w3.org/2000/svg" xmlns:xlink="http://www.w3.org/1999/xlink" xml:space="preserve" xmlns:serif="http://www.serif.com/" style="fill-rule:evenodd;clip-rule:evenodd;stroke-linejoin:round;stroke-miterlimit:2;">
    <g transform="matrix(0.0697168,0,0,0.0697168,0,0)">
        <path d="M214.419,32.12C214.007,29.161 211.878,26.727 209,25.927L116.76,0.275C115.446,-0.091 114.056,-0.091 112.741,0.275L20.501,25.927C17.622,26.727 15.493,29.16 15.082,32.12C14.547,35.967 2.342,126.864 33.647,172.081C64.915,217.246 111.042,228.82 112.99,229.29C113.569,229.43 114.159,229.499 114.751,229.499C115.343,229.499 115.933,229.429 116.512,229.29C118.461,228.819 164.588,217.245 195.855,172.081C227.159,126.864 214.954,35.967 214.419,32.12ZM182.383,162.719C155.263,201.893 114.639,211.705 114.639,211.705L114.639,114.75L30.918,114.75C26.057,78.362 31.252,40.985 31.252,40.985L114.638,17.795L114.638,114.75L198.359,114.75C195.996,132.443 191.256,149.903 182.383,162.719Z" style="fill-rule:nonzero;"/>
    </g>
</svg>
